images/twitter.svg

<svg width="23" height="18" viewBox="0 0 23 18" fill="none" xmlns="http://www.w3.org/2000/svg">
<path d="M21.9622 2.56742C21.1915 2.91476 20.3625 3.15043 19.4916 3.25946C20.3784 2.72158 21.057 1.87338 21.3725 0.865334C20.5432 1.36351 19.6229 1.72745 18.6423 1.92634C17.8527 1.0934 16.7289 0.576468 15.4899 0.583442C12.7084 0.5991 10.679 3.20582 11.3224 5.89636C7.74183 5.73714 4.55773 4.04004 2.41771 1.44542C1.29988 3.38811 1.8575 5.91814 3.7827 7.19007C3.07733 7.17129 2.41125 6.98167 1.82932 6.66206C1.7933 8.65817 3.23442 10.5173 5.30872 10.9213C4.70328 11.0892 4.03939 11.1314 3.36317 11.0057C3.92054 12.7141 5.51828 13.9503 7.40494 13.9747C5.60172 15.405 3.32332 16.0522 1.03634 15.7955C2.94982 17.0072 5.21917 17.7075 7.65163 17.6938C15.6508 17.6488 20.132 10.8676 19.8249 4.80986C20.6632 4.197 21.3896 3.43428 21.9622 2.56742Z" fill="#ABBCD5"/>
</svg>

<svg fill="none" height="18" width="23" xmlns="http://www.w3.org/2000/svg"><path d="M21.962 2.567c-.77.348-1.6.583-2.47.692a4.316 4.316 0 001.88-2.394 8.63 8.63 0 01-2.73 1.061A4.301 4.301 0 0015.49.583c-2.782.016-4.811 2.623-4.168 5.313a12.23 12.23 0 01-8.904-4.45A4.314 4.314 0 003.783 7.19a4.29 4.29 0 01-1.954-.528c-.036 1.996 1.405 3.855 3.48 4.26-.606.167-1.27.21-1.946.084a4.312 4.312 0 004.042 2.969 8.662 8.662 0 01-6.369 1.82 12.196 12.196 0 006.616 1.899c7.999-.045 12.48-6.826 12.173-12.884a8.772 8.772 0 002.137-2.243z" fill="#abbcd5"/></svg>
